img/svg/logo-footer.svg

<svg width="73" height="14" viewBox="0 0 73 14" fill="none" xmlns="http://www.w3.org/2000/svg">
<path d="M14.9336 0.618119C15.0642 0.343575 15.274 0.258789 15.5709 0.258789C19.0426 0.266864 22.5142 0.262826 25.9899 0.262826C26.4886 0.262826 26.6588 0.440473 26.6588 0.953225C26.6588 1.62747 26.6588 2.30172 26.6588 2.97597C26.6588 3.47258 26.4807 3.65426 25.9978 3.65426C25.0715 3.65426 24.1452 3.65426 23.2228 3.65426C23.1397 3.65426 23.0605 3.66233 22.9576 3.66637C22.9576 3.77134 22.9576 3.85209 22.9576 3.93688C22.9576 6.97302 22.9576 10.0132 22.9576 13.0493C22.9576 13.1422 22.9576 13.2351 22.9536 13.3279C22.9378 13.5904 22.7517 13.7761 22.4944 13.7761C21.3663 13.7801 20.2381 13.7801 19.1138 13.7761C18.8486 13.7761 18.6467 13.5702 18.619 13.2754C18.6111 13.2068 18.6151 13.1341 18.6151 13.0614C18.6151 10.0172 18.6151 6.97302 18.6151 3.9288C18.6151 3.84402 18.6151 3.76327 18.6151 3.65426C18.52 3.65426 18.4448 3.65426 18.3696 3.65426C17.4433 3.65426 16.517 3.64618 15.5947 3.6583C15.2938 3.66233 15.0721 3.58159 14.9376 3.29897C14.9336 2.4067 14.9336 1.51039 14.9336 0.618119Z" fill="#737373"/>
<path d="M53.5806 0C54.8236 0.00807484 56.0191 0.133235 57.1671 0.573314C59.0553 1.29601 60.2191 2.67277 60.6664 4.6713C61.0266 6.27819 61.0227 7.88912 60.6308 9.48794C60.0964 11.6601 58.7148 12.9924 56.6406 13.598C55.1799 14.026 53.6875 14.0785 52.1832 13.913C51.2332 13.808 50.3108 13.59 49.4518 13.162C47.9159 12.3989 46.9738 11.1392 46.5779 9.46775C46.1623 7.72359 46.1662 5.96731 46.6571 4.24333C47.2311 2.22866 48.5849 0.993205 50.5365 0.403742C51.5301 0.0968981 52.5633 0.00807484 53.5806 0ZM50.6117 7.00492C50.6354 7.26736 50.6434 7.52979 50.6829 7.78818C50.8452 8.79754 51.3797 9.50005 52.3495 9.81093C53.1175 10.0572 53.9092 10.0613 54.689 9.85938C55.6074 9.62117 56.2249 9.04382 56.4664 8.09503C56.6485 7.37637 56.6524 6.64963 56.4664 5.93501C56.2328 5.02659 55.6588 4.4452 54.7682 4.19084C53.9606 3.96071 53.1491 3.96878 52.3495 4.21103C51.6963 4.40886 51.1976 4.82068 50.9046 5.46263C50.6869 5.94308 50.6196 6.46795 50.6117 7.00492Z" fill="#737373"/>
<path d="M37.6005 7.67553C37.6797 7.73206 37.7311 7.77243 37.7866 7.8128C38.3804 8.21655 38.8633 8.71719 39.1998 9.36721C39.8133 10.5461 40.4546 11.713 41.0761 12.8878C41.1513 13.0292 41.1988 13.2068 41.1988 13.3643C41.1988 13.5984 41.0049 13.772 40.7792 13.7761C39.4452 13.7801 38.1072 13.7801 36.7732 13.7761C36.5317 13.7761 36.413 13.5944 36.3179 13.3966C35.7202 12.1611 35.1185 10.9257 34.5208 9.69424C34.4772 9.60542 34.4376 9.51659 34.3901 9.42777C34.2278 9.129 33.9666 9.01595 33.6459 9.01595C32.9848 9.01595 32.3277 9.01595 31.6429 9.01595C31.6429 9.0967 31.6429 9.17341 31.6429 9.24609C31.6429 10.5461 31.6429 11.8421 31.6429 13.1422C31.6429 13.5904 31.4648 13.7761 31.0293 13.7761C29.9447 13.7761 28.86 13.764 27.7714 13.7841C27.4508 13.7882 27.2331 13.5258 27.2212 13.2472C27.2212 13.1987 27.2212 13.1462 27.2212 13.0978C27.2212 9.04422 27.2212 4.99468 27.2212 0.941113C27.2212 0.828065 27.2291 0.71098 27.2608 0.606007C27.3281 0.404136 27.4627 0.270901 27.6883 0.262826C27.7516 0.258789 27.815 0.258789 27.8744 0.258789C30.3722 0.258789 32.87 0.258789 35.3679 0.258789C36.2546 0.258789 37.1294 0.347612 37.941 0.751354C39.0058 1.28026 39.7579 2.0837 39.9598 3.30704C40.1498 4.45367 40.0509 5.57203 39.3185 6.53698C38.9464 7.02551 38.4199 7.30813 37.8776 7.55845C37.7984 7.59478 37.7153 7.62708 37.6005 7.67553ZM31.5637 3.303C31.5637 4.21142 31.5637 5.05121 31.5637 5.9031C32.209 5.9031 32.8423 5.91522 33.4717 5.89907C33.832 5.89099 34.1922 5.86273 34.5485 5.80621C34.9008 5.74968 35.2452 5.64067 35.4787 5.3419C36.0488 4.62324 35.6727 3.55332 34.7385 3.44431C33.6934 3.32319 32.6325 3.34742 31.5637 3.303Z" fill="#737373"/>
<path d="M65.9161 9.77884C66.0229 9.77884 66.1021 9.77884 66.1852 9.77884C68.0062 9.77884 69.8311 9.77884 71.652 9.77884C72.0835 9.77884 72.2695 9.9686 72.2695 10.4127C72.2695 11.3494 72.2695 12.2861 72.2695 13.2228C72.2695 13.574 72.0756 13.7799 71.7351 13.7799C68.5366 13.7799 65.3342 13.7799 62.1356 13.7799C61.8269 13.7799 61.6646 13.6386 61.6052 13.3277C61.5933 13.251 61.5894 13.1743 61.5894 13.0936C61.5894 9.04807 61.5894 5.00258 61.5894 0.961118C61.5894 0.856145 61.5973 0.747135 61.621 0.646199C61.6764 0.403954 61.815 0.278794 62.0604 0.274757C63.1886 0.270719 64.3128 0.270719 65.441 0.274757C65.7102 0.274757 65.9042 0.484702 65.92 0.763284C65.924 0.819808 65.92 0.876332 65.92 0.932856C65.92 3.79135 65.9161 6.65388 65.9161 9.51237C65.9161 9.58909 65.9161 9.6658 65.9161 9.77884Z" fill="#737373"/>
<path d="M41.9033 7.00932C41.9033 5.00273 41.9033 2.99209 41.9033 0.985492C41.9033 0.884556 41.9033 0.787658 41.9112 0.686723C41.935 0.428328 42.0894 0.262794 42.3427 0.262794C43.2809 0.258756 44.2191 0.258756 45.1612 0.262794C45.4066 0.262794 45.5571 0.416216 45.5887 0.666536C45.6006 0.759396 45.6046 0.852257 45.6046 0.94108C45.6046 4.99061 45.6046 9.04418 45.6046 13.0937C45.6046 13.1947 45.6046 13.2915 45.5887 13.3925C45.5531 13.6468 45.4027 13.7801 45.1533 13.7801C44.223 13.7801 43.2888 13.7801 42.3586 13.7801C42.1052 13.7801 41.9469 13.6307 41.9192 13.3723C41.9073 13.2754 41.9112 13.1745 41.9112 13.0735C41.9033 11.0508 41.9033 9.03207 41.9033 7.00932Z" fill="#737373"/>
<path d="M6.79088 0.258807C6.88984 0.274957 6.99276 0.291107 7.09173 0.303219C7.77655 0.400117 8.39805 0.654475 8.95224 1.0784C9.70437 1.65576 10.1794 2.4269 10.4446 3.33532C10.5634 3.73907 10.6267 4.15088 10.6623 4.56674C10.698 4.95837 10.7019 5.35 10.6742 5.73759C10.6188 6.48047 10.4723 7.20721 10.2229 7.90972C9.89834 8.83025 9.45498 9.68619 8.88891 10.4775C8.84536 10.5381 8.81369 10.5462 8.7464 10.5179C8.27137 10.3281 7.80822 10.1142 7.39653 9.7952C7.28174 9.70638 7.17881 9.60544 7.06402 9.51662C7.0086 9.4722 7.00464 9.43183 7.04026 9.36723C7.40841 8.71317 7.70134 8.02681 7.93094 7.31218C8.10907 6.75502 8.24762 6.18574 8.33471 5.60435C8.41388 5.09564 8.45347 4.57885 8.44159 4.06206C8.4218 3.33532 8.31888 2.6207 8.04969 1.94241C7.76864 1.22779 7.32924 0.650437 6.65233 0.287069C6.63649 0.278994 6.62857 0.262845 6.6167 0.250732C6.68004 0.258807 6.73546 0.258807 6.79088 0.258807Z" fill="#737373"/>
<path d="M4.90314 7.28345C5.08128 7.58625 5.23962 7.88906 5.42963 8.16764C6.18968 9.31023 7.1714 10.1904 8.41834 10.7476C8.87754 10.9494 9.35256 11.0867 9.85134 11.1432C10.2432 11.1917 10.6351 11.1876 11.031 11.1674C11.6248 11.1392 12.1711 10.9575 12.6817 10.6547C12.6896 10.6507 12.6975 10.6507 12.7173 10.6466C12.6777 10.7758 12.6421 10.8969 12.6025 11.014C12.4125 11.547 12.1513 12.0395 11.7752 12.4594C11.2804 13.0166 10.6708 13.3719 9.9503 13.5293C9.49507 13.6303 9.03588 13.6464 8.57668 13.5899C7.46037 13.4486 6.46282 13.0206 5.59193 12.2939C4.8596 11.6842 4.28165 10.9454 3.78683 10.1298C3.50182 9.65745 3.24847 9.16892 3.01887 8.66424C3.01096 8.64406 3.01096 8.59965 3.02679 8.58753C3.47411 8.1636 3.94913 7.78005 4.49146 7.48532C4.62209 7.41264 4.76855 7.34805 4.90314 7.28345Z" fill="#737373"/>
<path d="M0.643198 11.8417C0.536317 11.6237 0.421519 11.4097 0.326513 11.1876C0.069207 10.578 -0.0257985 9.94007 0.00587003 9.28197C0.0573313 8.11919 0.433394 7.06946 1.13406 6.14489C1.81097 5.24858 2.68582 4.64297 3.73088 4.27557C4.29695 4.0737 4.87886 3.93642 5.4766 3.85567C6.00705 3.783 6.54145 3.7507 7.07586 3.77896C7.41234 3.79511 7.74486 3.8476 8.08133 3.88394C8.12884 3.88797 8.13675 3.9122 8.13279 3.95661C8.10509 4.30787 8.09321 4.65912 8.05362 5.01038C8.01404 5.36163 7.94278 5.71289 7.89132 6.06414C7.88341 6.1247 7.85965 6.13278 7.80819 6.13278C6.60875 6.13682 5.49243 6.45981 4.44342 7.03716C3.82984 7.3763 3.26772 7.79216 2.74915 8.26857C2.2385 8.73692 1.7793 9.25371 1.38741 9.83106C1.0351 10.3519 0.797582 10.9171 0.706535 11.5429C0.694659 11.6358 0.690701 11.7327 0.682784 11.8296C0.662991 11.8336 0.655074 11.8377 0.643198 11.8417Z" fill="#737373"/>
<path d="M4.827 12.7904C4.68845 12.8792 4.55386 12.9761 4.4074 13.0568C4.02738 13.2627 3.62361 13.3717 3.19608 13.4081C2.73689 13.4444 2.30145 13.3758 1.89372 13.1416C1.49391 12.9115 1.22868 12.5643 1.06242 12.1363C1.04263 12.0798 1.03471 12.0152 1.03471 11.9506C1.03076 11.0987 1.28014 10.3316 1.771 9.64924C1.77892 9.64117 1.78684 9.63309 1.80267 9.61694C1.86601 9.93186 1.94914 10.2306 2.07185 10.5133C2.41229 11.3046 2.91502 11.9546 3.65527 12.3947C4.01154 12.6046 4.39156 12.7338 4.80325 12.7621C4.81513 12.7742 4.82305 12.7823 4.827 12.7904Z" fill="#737373"/>
<path d="M3.43015 2.91179C3.42223 2.6655 3.43807 2.42326 3.48953 2.17697C3.58058 1.76112 3.75871 1.39775 4.06748 1.10706C4.45146 0.74369 4.90274 0.517595 5.42527 0.444921C6.08635 0.352061 6.6643 0.537782 7.15912 0.985936C7.34122 1.15147 7.46789 1.36142 7.57477 1.57944C7.68561 1.80149 7.78458 2.03566 7.8875 2.26176C7.87958 2.2658 7.87562 2.27387 7.86771 2.27791C7.78062 2.24157 7.69353 2.2012 7.60248 2.1689C7.21058 2.01952 6.80681 1.93069 6.39116 1.89839C5.70633 1.84591 5.0492 1.93877 4.41583 2.21735C4.0754 2.36673 3.77455 2.58072 3.50932 2.84719C3.48557 2.87141 3.46974 2.89967 3.4539 2.92793C3.44598 2.9239 3.43807 2.91582 3.43015 2.91179Z" fill="#737373"/>
<path d="M11.7825 6.80298C12.0201 6.96044 12.214 7.16231 12.3763 7.39244C12.6574 7.79618 12.8236 8.24838 12.9107 8.73287C12.9543 8.98319 12.9701 9.23754 12.9503 9.48786C12.9384 9.64532 12.9068 9.80682 12.8632 9.96024C12.8434 10.0289 12.7801 10.0894 12.7247 10.1419C12.3644 10.4972 11.9211 10.687 11.4381 10.7839C11.1254 10.8485 10.8127 10.8767 10.496 10.8808C10.4723 10.8808 10.4525 10.8808 10.4287 10.8808C11.5213 9.74222 11.9646 8.38161 11.7825 6.80298Z" fill="#737373"/>
<path d="M3.20039 3.98858C2.84807 4.17431 2.50763 4.35599 2.16324 4.53767C2.02073 3.89169 2.7689 1.9618 3.2756 1.68726C3.12122 2.45437 2.9985 3.21744 3.20039 3.98858Z" fill="#737373"/>
<path d="M11.1094 6.09242C11.1252 5.83403 11.149 5.59582 11.1569 5.35358C11.1648 5.11537 11.1569 4.87716 11.1569 4.6228C11.8536 5.26475 12.2415 6.07627 12.4592 6.99681C12.0871 6.56076 11.6121 6.28622 11.1094 6.09242Z" fill="#737373"/>
<path d="M5.33358 12.7058C5.67798 12.9198 6.0105 13.1217 6.34301 13.3276C5.8759 13.6506 4.53791 13.917 3.62744 13.7192C3.66703 13.7031 3.69078 13.695 3.71849 13.6869C4.03913 13.5819 4.35978 13.481 4.65271 13.3114C4.91002 13.1661 5.12774 12.9804 5.30587 12.7421C5.31775 12.726 5.33358 12.7098 5.33358 12.7058Z" fill="#737373"/>
</svg>

<svg width="73" height="14" viewBox="0 0 73 14" fill="none" xmlns="http://www.w3.org/2000/svg"><path d="M14.934.618c.13-.274.34-.36.637-.36 3.472.009 6.943.005 10.419.005.499 0 .669.177.669.69v2.023c0 .497-.178.678-.661.678h-2.775c-.083 0-.162.008-.265.012v9.383c0 .093 0 .186-.004.279-.016.262-.202.448-.46.448-1.128.004-2.256.004-3.38 0-.265 0-.467-.206-.495-.5-.008-.07-.004-.142-.004-.215V3.655h-.245c-.927 0-1.853-.008-2.775.004-.301.004-.523-.076-.657-.359-.004-.892-.004-1.789-.004-2.68zM53.58 0c1.244.008 2.44.133 3.587.573 1.888.723 3.052 2.1 3.5 4.098.36 1.607.356 3.218-.036 4.817-.535 2.172-1.916 3.504-3.99 4.11-1.461.428-2.953.48-4.458.315-.95-.105-1.872-.323-2.731-.751-1.536-.763-2.478-2.023-2.874-3.694-.416-1.744-.412-3.5.08-5.225.573-2.014 1.927-3.25 3.878-3.84C51.53.098 52.563.009 53.581 0zm-2.968 7.005c.023.262.031.525.07.783.163 1.01.698 1.712 1.667 2.023.769.246 1.56.25 2.34.048.918-.238 1.536-.815 1.777-1.764a4.294 4.294 0 000-2.16c-.233-.908-.807-1.49-1.698-1.744a4.217 4.217 0 00-2.419.02c-.653.198-1.151.61-1.444 1.252-.218.48-.285 1.005-.293 1.542zM37.6 7.676c.08.056.131.096.187.137.593.404 1.076.904 1.413 1.554.613 1.18 1.255 2.346 1.876 3.52.075.142.123.32.123.477a.418.418 0 01-.42.412 668.67 668.67 0 01-4.006 0c-.241 0-.36-.182-.455-.38-.598-1.235-1.2-2.47-1.797-3.702-.044-.089-.083-.177-.13-.266-.163-.299-.424-.412-.745-.412h-2.003v4.126c0 .448-.178.634-.614.634-1.084 0-2.169-.012-3.258.008a.55.55 0 01-.55-.537V.942c0-.113.008-.23.04-.335.067-.202.202-.335.427-.343.064-.004.127-.004.186-.004h7.494c.887 0 1.761.089 2.573.492 1.065.53 1.817 1.333 2.019 2.556.19 1.147.09 2.265-.642 3.23-.372.489-.898.771-1.44 1.021-.08.037-.163.07-.278.118zm-6.036-4.373v2.6c.645 0 1.278.012 1.908-.004a8.02 8.02 0 001.076-.093c.353-.056.697-.165.93-.464.57-.719.195-1.789-.74-1.898-1.045-.12-2.105-.097-3.174-.141zm34.352 6.476h5.736c.431 0 .617.19.617.634v2.81c0 .351-.193.557-.534.557h-9.6c-.308 0-.47-.141-.53-.452a1.513 1.513 0 01-.016-.234V.96c0-.105.008-.214.032-.315.055-.242.194-.367.44-.371 1.128-.004 2.252-.004 3.38 0 .27 0 .463.21.479.488.004.057 0 .113 0 .17 0 2.858-.004 5.72-.004 8.58v.266zM41.903 7.01V.984c0-.1 0-.197.008-.298.024-.259.178-.424.432-.424.938-.004 1.876-.004 2.818 0 .246 0 .396.153.428.404.012.092.016.185.016.274v12.153c0 .1 0 .197-.016.299-.036.254-.186.387-.436.387H42.36c-.254 0-.412-.15-.44-.408-.012-.097-.008-.197-.008-.299-.008-2.022-.008-4.04-.008-6.064zM6.79.259c.1.016.203.032.302.044a3.912 3.912 0 011.86.775c.752.578 1.227 1.349 1.493 2.257.118.404.182.816.217 1.232.036.391.04.783.012 1.17a8.317 8.317 0 01-.451 2.173c-.325.92-.768 1.776-1.334 2.567-.044.061-.075.07-.143.04-.475-.189-.938-.403-1.35-.722-.114-.089-.217-.19-.332-.278-.055-.045-.06-.085-.024-.15.368-.654.661-1.34.89-2.055.18-.557.318-1.126.405-1.708a8.826 8.826 0 00.107-1.542c-.02-.727-.123-1.441-.392-2.12C7.769 1.228 7.33.65 6.652.287 6.636.28 6.63.263 6.617.251c.063.008.118.008.174.008z" fill="#737373"/><path d="M4.903 7.283c.178.303.337.606.527.885.76 1.142 1.741 2.022 2.988 2.58.46.201.935.339 1.433.395a6.64 6.64 0 001.18.024 3.525 3.525 0 001.65-.512c.009-.004.017-.004.036-.008-.04.129-.075.25-.115.367-.19.533-.45 1.026-.827 1.445a3.335 3.335 0 01-1.825 1.07 4.03 4.03 0 01-1.373.06 5.68 5.68 0 01-2.985-1.295c-.732-.61-1.31-1.349-1.805-2.164a14.177 14.177 0 01-.768-1.466c-.008-.02-.008-.064.008-.076.447-.424.922-.808 1.464-1.103.131-.072.278-.137.412-.202z" fill="#737373"/><path d="M.643 11.842c-.107-.218-.221-.432-.316-.654a4.303 4.303 0 01-.321-1.906 5.487 5.487 0 011.128-3.137c.677-.896 1.552-1.502 2.597-1.87a8.609 8.609 0 011.746-.42 8.48 8.48 0 011.599-.076c.336.016.669.069 1.005.105.048.004.056.028.052.073-.028.35-.04.702-.08 1.053-.039.352-.11.703-.162 1.054-.008.06-.031.069-.083.069-1.2.004-2.316.327-3.365.904A8.793 8.793 0 002.75 8.27c-.51.468-.97.985-1.362 1.562a4.07 4.07 0 00-.68 1.712c-.012.093-.016.19-.024.287-.02.004-.028.008-.04.012z" fill="#737373"/><path d="M4.827 12.79c-.139.09-.273.186-.42.267-.38.206-.783.315-1.21.351-.46.036-.896-.032-1.303-.266-.4-.23-.665-.578-.832-1.006a.57.57 0 01-.027-.185 3.82 3.82 0 01.736-2.302l.032-.032c.063.315.146.614.269.896.34.792.843 1.442 1.583 1.882.357.21.737.339 1.148.367.012.012.02.02.024.028zM3.43 2.912a3.072 3.072 0 01.06-.735c.09-.416.269-.78.577-1.07.384-.363.836-.59 1.358-.662.661-.093 1.24.093 1.734.54.182.166.309.376.416.594.11.222.21.457.313.683-.008.004-.012.012-.02.016-.087-.036-.174-.077-.266-.11a4.321 4.321 0 00-1.21-.27 4.046 4.046 0 00-1.976.32c-.34.149-.641.363-.907.63a.335.335 0 00-.055.08c-.008-.004-.016-.012-.024-.016zm8.353 3.891c.237.157.431.36.593.59.281.403.448.855.535 1.34.043.25.06.505.04.755a2.416 2.416 0 01-.088.472.463.463 0 01-.138.182c-.36.355-.804.545-1.287.642a4.946 4.946 0 01-.942.097h-.067c1.092-1.139 1.536-2.5 1.354-4.078zM3.2 3.989c-.352.185-.692.367-1.037.549-.142-.646.606-2.576 1.113-2.85-.155.766-.277 1.53-.076 2.3zm7.91 2.103c.015-.258.039-.496.047-.738.008-.239 0-.477 0-.731.697.642 1.085 1.453 1.302 2.374-.372-.436-.847-.71-1.35-.905zm-5.776 6.614c.344.214.677.416 1.009.622-.467.323-1.805.589-2.716.391a.863.863 0 01.091-.032c.321-.105.642-.206.935-.376a2.06 2.06 0 00.653-.569c.012-.016.028-.032.028-.036z" fill="#737373"/></svg>
